material/.icons/material/bag-carry-on-check.svg

<svg xmlns="http://www.w3.org/2000/svg" viewBox="0 0 24 24"><path d="M15.28 16.69l2.86-2.81.7.7-3.56 3.56L13.17 16l.71-.72 1.4 1.41M8 21a2 2 0 01-2-2V9a2 2 0 012-2v14M9 7h5V4a2 2 0 01-2-2h4v8a6 6 0 016 6 6 6 0 01-6 6c-1.23 0-2.37-.37-3.32-1H9V7m7 5a4 4 0 00-4 4 4 4 0 004 4 4 4 0 004-4 4 4 0 00-4-4z"/></svg>

<?xml version="1.0" encoding="UTF-8"?><!DOCTYPE svg PUBLIC "-//W3C//DTD SVG 1.1//EN" "http://www.w3.org/Graphics/SVG/1.1/DTD/svg11.dtd"><svg xmlns="http://www.w3.org/2000/svg" xmlns:xlink="http://www.w3.org/1999/xlink" version="1.1" id="mdi-bag-carry-on-check" width="24" height="24" viewBox="0 0 24 24"><path d="M15.28,16.69L18.14,13.88L18.84,14.58L15.28,18.14L13.17,16L13.88,15.28L15.28,16.69M8,21A2,2 0 0,1 6,19V9A2,2 0 0,1 8,7V21M9,7H14V4A2,2 0 0,1 12,2H16V10A6,6 0 0,1 22,16A6,6 0 0,1 16,22C14.77,22 13.63,21.63 12.68,21H9V7M16,12A4,4 0 0,0 12,16A4,4 0 0,0 16,20A4,4 0 0,0 20,16A4,4 0 0,0 16,12Z" /></svg>
